Newaita-dark/actions/16/distribute-vertical-center.svg

<?xml version="1.0" encoding="UTF-8"?>
<svg xmlns="http://www.w3.org/2000/svg" xmlns:xlink="http://www.w3.org/1999/xlink" width="16pt" height="16pt" viewBox="0 0 16 16" version="1.1">
<g id="surface1">
<path style=" stroke:none;fill-rule:evenodd;fill:rgb(14.901961%,77.64706%,85.490197%);fill-opacity:1;" d="M 14.71875 8.945312 C 14.71875 8.816406 14.617188 8.714844 14.488281 8.714844 L 11.722656 8.714844 C 11.546875 8.714844 11.4375 8.902344 11.519531 9.054688 L 12.902344 10.671875 C 13.046875 10.847656 13.164062 10.847656 13.308594 10.671875 L 14.691406 9.054688 C 14.710938 9.023438 14.71875 8.984375 14.71875 8.945312 Z M 14.71875 8.945312 "/>
<path style=" stroke:none;fill-rule:evenodd;fill:rgb(14.901961%,77.64706%,85.490197%);fill-opacity:1;" d="M 14.71875 7.179688 C 14.71875 7.308594 14.617188 7.410156 14.488281 7.410156 L 11.722656 7.410156 C 11.546875 7.410156 11.4375 7.222656 11.519531 7.070312 L 12.902344 5.453125 C 13.046875 5.28125 13.164062 5.28125 13.308594 5.453125 L 14.691406 7.070312 C 14.710938 7.105469 14.71875 7.144531 14.71875 7.179688 Z M 14.71875 7.179688 "/>
<path style=" stroke:none;fill-rule:nonzero;fill:rgb(74.117649%,74.117649%,74.117649%);fill-opacity:1;" d="M 10.417969 2.441406 C 10.417969 1.890625 9.976562 1.449219 9.425781 1.449219 L 6.117188 1.449219 C 5.570312 1.449219 5.125 1.890625 5.125 2.441406 L 5.125 5.746094 C 5.125 6.296875 5.570312 6.738281 6.117188 6.738281 L 9.425781 6.738281 C 9.976562 6.738281 10.417969 6.296875 10.417969 5.746094 Z M 9.425781 3.101562 L 9.425781 5.085938 C 9.425781 5.453125 9.132812 5.746094 8.765625 5.746094 L 6.78125 5.746094 C 6.414062 5.746094 6.117188 5.453125 6.117188 5.085938 L 6.117188 3.101562 C 6.117188 2.734375 6.414062 2.441406 6.78125 2.441406 L 8.765625 2.441406 C 9.132812 2.441406 9.425781 2.734375 9.425781 3.101562 Z M 9.425781 3.101562 "/>
<path style=" stroke:none;fill-rule:nonzero;fill:rgb(74.117649%,74.117649%,74.117649%);fill-opacity:1;" d="M 5.789062 4.09375 C 5.789062 4.460938 5.492188 4.753906 5.125 4.753906 L 1.820312 4.753906 C 1.453125 4.753906 1.15625 4.460938 1.15625 4.09375 C 1.15625 3.730469 1.453125 3.433594 1.820312 3.433594 L 5.125 3.433594 C 5.492188 3.433594 5.789062 3.730469 5.789062 4.09375 Z M 5.789062 4.09375 "/>
<path style=" stroke:none;fill-rule:nonzero;fill:rgb(74.117649%,74.117649%,74.117649%);fill-opacity:1;" d="M 13.066406 4.09375 C 13.066406 4.460938 12.769531 4.753906 12.402344 4.753906 L 10.417969 4.753906 C 10.054688 4.753906 9.757812 4.460938 9.757812 4.09375 C 9.757812 3.730469 10.054688 3.433594 10.417969 3.433594 L 12.402344 3.433594 C 12.769531 3.433594 13.066406 3.730469 13.066406 4.09375 Z M 13.066406 4.09375 "/>
<path style=" stroke:none;fill-rule:nonzero;fill:rgb(74.117649%,74.117649%,74.117649%);fill-opacity:1;" d="M 10.417969 10.378906 C 10.417969 9.828125 9.976562 9.386719 9.425781 9.386719 L 3.445312 9.386719 C 2.894531 9.386719 2.453125 9.828125 2.453125 10.378906 L 2.453125 13.6875 C 2.453125 14.234375 2.894531 14.679688 3.445312 14.679688 L 9.425781 14.679688 C 9.976562 14.679688 10.417969 14.234375 10.417969 13.6875 Z M 9.425781 11.039062 L 9.425781 13.023438 C 9.425781 13.390625 9.132812 13.6875 8.765625 13.6875 L 4.105469 13.6875 C 3.742188 13.6875 3.445312 13.390625 3.445312 13.023438 L 3.445312 11.039062 C 3.445312 10.671875 3.742188 10.378906 4.105469 10.378906 L 8.765625 10.378906 C 9.132812 10.378906 9.425781 10.671875 9.425781 11.039062 Z M 9.425781 11.039062 "/>
<path style=" stroke:none;fill-rule:nonzero;fill:rgb(74.117649%,74.117649%,74.117649%);fill-opacity:1;" d="M 3.140625 12.03125 C 3.140625 12.398438 2.847656 12.695312 2.480469 12.695312 L 1.820312 12.695312 C 1.453125 12.695312 1.15625 12.398438 1.15625 12.03125 C 1.15625 11.667969 1.453125 11.371094 1.820312 11.371094 L 2.480469 11.371094 C 2.847656 11.371094 3.140625 11.667969 3.140625 12.03125 Z M 3.140625 12.03125 "/>
<path style=" stroke:none;fill-rule:nonzero;fill:rgb(74.117649%,74.117649%,74.117649%);fill-opacity:1;" d="M 13.066406 12.03125 C 13.066406 12.398438 12.769531 12.695312 12.402344 12.695312 L 10.417969 12.695312 C 10.054688 12.695312 9.757812 12.398438 9.757812 12.03125 C 9.757812 11.667969 10.054688 11.371094 10.417969 11.371094 L 12.402344 11.371094 C 12.769531 11.371094 13.066406 11.667969 13.066406 12.03125 Z M 13.066406 12.03125 "/>
</g>
</svg>

<svg xmlns="http://www.w3.org/2000/svg" width="16pt" height="16pt" viewBox="0 0 16 16"><path d="M14.719 8.945a.228.228 0 0 0-.23-.23h-2.766a.23.23 0 0 0-.203.34l1.382 1.617c.145.176.262.176.407 0l1.382-1.617a.207.207 0 0 0 .028-.11zm0 0M14.719 7.18c0 .129-.102.23-.23.23h-2.766a.23.23 0 0 1-.203-.34l1.382-1.617c.145-.172.262-.172.407 0L14.69 7.07c.02.035.028.075.028.11zm0 0" fill-rule="evenodd" fill="#26c6da"/><path d="M10.418 2.441a.989.989 0 0 0-.992-.992H6.117a.991.991 0 0 0-.992.992v3.305c0 .55.445.992.992.992h3.309c.55 0 .992-.441.992-.992zm-.992.66v1.985c0 .367-.293.66-.66.66H6.78a.66.66 0 0 1-.664-.66V3.102a.66.66 0 0 1 .664-.66h1.985c.367 0 .66.292.66.66zm0 0" fill="#bdbdbd"/><path d="M5.79 4.094a.66.66 0 0 1-.665.66H1.82a.66.66 0 1 1 0-1.32h3.305c.367 0 .664.296.664.66zm0 0M13.066 4.094a.66.66 0 0 1-.664.66h-1.984a.66.66 0 1 1 0-1.32h1.984c.368 0 .664.296.664.66zm0 0M10.418 10.379a.989.989 0 0 0-.992-.992h-5.98a.989.989 0 0 0-.993.992v3.309c0 .546.442.992.992.992h5.98c.552 0 .993-.446.993-.992zm-.992.66v1.984a.66.66 0 0 1-.66.665h-4.66a.663.663 0 0 1-.66-.665V11.04a.66.66 0 0 1 .66-.66h4.66c.367 0 .66.293.66.66zm0 0" fill="#bdbdbd"/><path d="M3.14 12.031a.66.66 0 0 1-.66.664h-.66a.663.663 0 0 1 0-1.324h.66a.66.66 0 0 1 .66.66zm0 0M13.066 12.031a.664.664 0 0 1-.664.664h-1.984a.663.663 0 0 1 0-1.324h1.984c.368 0 .664.297.664.66zm0 0" fill="#bdbdbd"/></svg>
